Resources/Private/Icons/solid/indian-rupee-sign.svg

<svg xmlns="http://www.w3.org/2000/svg" viewBox="0 0 320 512"><!--! Font Awesome Free 6.1.1 by @fontawesome - https://fontawesome.com License - https://fontawesome.com/license/free (Icons: CC BY 4.0, Fonts: SIL OFL 1.1, Code: MIT License) Copyright 2022 Fonticons, Inc. --><path d="M.0022 64C.0022 46.33 14.33 32 32 32H288C305.7 32 320 46.33 320 64C320 81.67 305.7 96 288 96H231.8C241.4 110.4 248.5 126.6 252.4 144H288C305.7 144 320 158.3 320 176C320 193.7 305.7 208 288 208H252.4C239.2 266.3 190.5 311.2 130.3 318.9L274.6 421.1C288.1 432.2 292.3 452.2 282 466.6C271.8 480.1 251.8 484.3 237.4 474L13.4 314C2.083 305.1-2.716 291.5 1.529 278.2C5.774 264.1 18.09 256 32 256H112C144.8 256 173 236.3 185.3 208H32C14.33 208 .0022 193.7 .0022 176C.0022 158.3 14.33 144 32 144H185.3C173 115.7 144.8 96 112 96H32C14.33 96 .0022 81.67 .0022 64V64z"/></svg>

<svg xmlns="http://www.w3.org/2000/svg" viewBox="0 0 320 512"><!--! Font Awesome Free 6.2.0 by @fontawesome - https://fontawesome.com License - https://fontawesome.com/license/free (Icons: CC BY 4.0, Fonts: SIL OFL 1.1, Code: MIT License) Copyright 2022 Fonticons, Inc. --><path d="M0 64C0 46.3 14.3 32 32 32H96h16H288c17.7 0 32 14.3 32 32s-14.3 32-32 32H231.8c9.6 14.4 16.7 30.6 20.7 48H288c17.7 0 32 14.3 32 32s-14.3 32-32 32H252.4c-13.2 58.3-61.9 103.2-122.2 110.9L274.6 422c14.4 10.3 17.7 30.3 7.4 44.6s-30.3 17.7-44.6 7.4L13.4 314C2.1 306-2.7 291.5 1.5 278.2S18.1 256 32 256h80c32.8 0 61-19.7 73.3-48H32c-17.7 0-32-14.3-32-32s14.3-32 32-32H185.3C173 115.7 144.8 96 112 96H96 32C14.3 96 0 81.7 0 64z"/></svg>
